; Created using https://markroland.github.io/sand-table-pattern-maker/
;
; 11/22/2024 19:45:35
;
; Machine Specifications:
;
; Units: mm
;
; Min X: 0
; Max X: 530
; Min Y: 0
; Max Y: 530
; Motor Speed (mm/min): 3000
;
; Pattern Specifications:
;
; Name: Circle
;
; Parameters:
; - radius: [object Object]
; - angle: [object Object]
; - reverse: [object Object]
;
; URL: file:///C:/Arduino/Projects/Sand%20Projects/Sand%20Table%20Project%20Folder/SandPatternMaker525/index.html?pattern=lindenmayer
;
; Pattern Distance (mm): 8,252.1
; Pattern Draw Time (minutes): 2.7


; Custom G-code to execute before the start of the sketch

G1 X26.00 Y284.77
G1 X29.79 Y308.67
G1 X52.38 Y317.35
G1 X48.59 Y293.44
G1 X44.81 Y269.54
G1 X22.22 Y260.87
G1 X18.43 Y236.97
G1 X37.24 Y221.74
G1 X56.04 Y206.51
G1 X59.83 Y230.41
G1 X41.02 Y245.64
G1 X63.61 Y254.31
G1 X82.42 Y239.08
G1 X105.01 Y247.76
G1 X108.80 Y271.66
G1 X112.59 Y295.56
G1 X89.99 Y286.89
G1 X86.21 Y262.98
G1 X67.40 Y278.21
G1 X71.19 Y302.12
G1 X93.78 Y310.79
G1 X97.56 Y334.69
G1 X74.97 Y326.02
G1 X56.17 Y341.25
G1 X78.76 Y349.92
G1 X101.35 Y358.59
G1 X120.16 Y343.36
G1 X116.37 Y319.46
G1 X135.18 Y304.23
G1 X138.96 Y328.13
G1 X161.56 Y336.81
G1 X157.77 Y312.90
G1 X153.99 Y289.00
G1 X131.39 Y280.33
G1 X127.61 Y256.43
G1 X146.41 Y241.20
G1 X150.20 Y265.10
G1 X172.79 Y273.77
G1 X169.01 Y249.87
G1 X165.22 Y225.97
G1 X142.63 Y217.30
G1 X123.82 Y232.53
G1 X101.23 Y223.85
G1 X78.64 Y215.18
G1 X97.44 Y199.95
G1 X120.04 Y208.62
G1 X116.25 Y184.72
G1 X93.66 Y176.05
G1 X89.87 Y152.15
G1 X108.68 Y136.92
G1 X112.46 Y160.82
G1 X135.06 Y169.49
G1 X131.27 Y145.59
G1 X127.49 Y121.69
G1 X104.89 Y113.02
G1 X101.11 Y89.11
G1 X119.91 Y73.88
G1 X138.72 Y58.65
G1 X142.51 Y82.56
G1 X123.70 Y97.79
G1 X146.29 Y106.46
G1 X165.10 Y91.23
G1 X161.31 Y67.33
G1 X180.12 Y52.10
G1 X198.93 Y36.87
G1 X202.71 Y60.77
G1 X183.91 Y76.00
G1 X206.50 Y84.67
G1 X225.31 Y69.44
G1 X247.90 Y78.11
G1 X251.68 Y102.02
G1 X255.47 Y125.92
G1 X232.88 Y117.25
G1 X229.09 Y93.34
G1 X210.28 Y108.57
G1 X214.07 Y132.48
G1 X195.26 Y147.71
G1 X172.67 Y139.03
G1 X191.48 Y123.80
G1 X187.69 Y99.90
G1 X168.89 Y115.13
G1 X150.08 Y130.36
G1 X153.86 Y154.26
G1 X176.46 Y162.94
G1 X180.24 Y186.84
G1 X157.65 Y178.16
G1 X138.84 Y193.39
G1 X161.44 Y202.07
G1 X184.03 Y210.74
G1 X202.83 Y195.51
G1 X199.05 Y171.61
G1 X217.86 Y156.38
G1 X236.66 Y141.15
G1 X240.45 Y165.05
G1 X221.64 Y180.28
G1 X244.23 Y188.95
G1 X263.04 Y173.72
G1 X285.63 Y182.40
G1 X289.42 Y206.30
G1 X266.83 Y197.63
G1 X248.02 Y212.85
G1 X270.61 Y221.53
G1 X293.21 Y230.20
G1 X312.01 Y214.97
G1 X334.60 Y223.64
G1 X338.39 Y247.54
G1 X342.18 Y271.45
G1 X319.58 Y262.77
G1 X315.80 Y238.87
G1 X296.99 Y254.10
G1 X300.78 Y278.00
G1 X323.37 Y286.68
G1 X327.16 Y310.58
G1 X330.94 Y334.48
G1 X308.35 Y325.81
G1 X304.56 Y301.91
G1 X285.76 Y317.14
G1 X289.54 Y341.04
G1 X270.73 Y356.27
G1 X248.14 Y347.59
G1 X225.55 Y338.92
G1 X244.36 Y323.69
G1 X266.95 Y332.36
G1 X263.16 Y308.46
G1 X240.57 Y299.79
G1 X236.78 Y275.89
G1 X255.59 Y260.66
G1 X259.38 Y284.56
G1 X281.97 Y293.23
G1 X278.18 Y269.33
G1 X274.40 Y245.43
G1 X251.81 Y236.76
G1 X233.00 Y251.99
G1 X210.41 Y243.31
G1 X229.21 Y228.08
G1 X225.43 Y204.18
G1 X206.62 Y219.41
G1 X187.81 Y234.64
G1 X191.60 Y258.54
G1 X214.19 Y267.22
G1 X217.98 Y291.12
G1 X221.76 Y315.02
G1 X199.17 Y306.35
G1 X195.39 Y282.45
G1 X176.58 Y297.67
G1 X180.36 Y321.58
G1 X202.96 Y330.25
G1 X206.74 Y354.15
G1 X184.15 Y345.48
G1 X165.34 Y360.71
G1 X187.94 Y369.38
G1 X210.53 Y378.05
G1 X229.33 Y362.82
G1 X251.93 Y371.50
G1 X255.71 Y395.40
G1 X259.50 Y419.30
G1 X236.91 Y410.63
G1 X233.12 Y386.73
G1 X214.31 Y401.96
G1 X218.10 Y425.86
G1 X199.29 Y441.09
G1 X176.70 Y432.41
G1 X154.11 Y423.74
G1 X172.91 Y408.51
G1 X195.51 Y417.19
G1 X191.72 Y393.28
G1 X169.13 Y384.61
G1 X150.32 Y399.84
G1 X127.73 Y391.17
G1 X146.54 Y375.94
G1 X142.75 Y352.04
G1 X123.94 Y367.27
G1 X105.14 Y382.50
G1 X108.92 Y406.40
G1 X131.51 Y415.07
G1 X135.30 Y438.97
G1 X112.71 Y430.30
G1 X93.90 Y445.53
G1 X116.49 Y454.20
G1 X139.09 Y462.87
G1 X157.89 Y447.64
G1 X180.49 Y456.32
G1 X184.27 Y480.22
G1 X161.68 Y471.55
G1 X142.87 Y486.78
G1 X165.46 Y495.45
G1 X188.06 Y504.12
G1 X206.86 Y488.89
G1 X203.08 Y464.99
G1 X221.89 Y449.76
G1 X240.69 Y434.53
G1 X244.48 Y458.43
G1 X225.67 Y473.66
G1 X248.26 Y482.33
G1 X267.07 Y467.10
G1 X263.28 Y443.20
G1 X282.09 Y427.97
G1 X285.88 Y451.88
G1 X308.47 Y460.55
G1 X304.68 Y436.65
G1 X300.90 Y412.74
G1 X278.31 Y404.07
G1 X274.52 Y380.17
G1 X293.33 Y364.94
G1 X312.13 Y349.71
G1 X315.92 Y373.61
G1 X297.11 Y388.84
G1 X319.71 Y397.51
G1 X338.51 Y382.28
G1 X361.10 Y390.96
G1 X364.89 Y414.86
G1 X368.68 Y438.76
G1 X346.08 Y430.09
G1 X342.30 Y406.19
G1 X323.49 Y421.42
G1 X327.28 Y445.32
G1 X349.87 Y453.99
G1 X353.66 Y477.89
G1 X331.06 Y469.22
G1 X312.26 Y484.45
G1 X334.85 Y493.12
G1 X357.44 Y501.79
G1 X376.25 Y486.57
G1 X372.46 Y462.66
G1 X391.27 Y447.43
G1 X395.05 Y471.34
G1 X417.65 Y480.01
G1 X413.86 Y456.11
G1 X410.08 Y432.20
G1 X387.48 Y423.53
G1 X383.70 Y399.63
G1 X402.50 Y384.40
G1 X406.29 Y408.30
G1 X428.88 Y416.97
G1 X425.10 Y393.07
G1 X421.31 Y369.17
G1 X398.72 Y360.50
G1 X379.91 Y375.73
G1 X357.32 Y367.05
G1 X334.73 Y358.38
G1 X353.53 Y343.15
G1 X376.13 Y351.83
G1 X372.34 Y327.92
G1 X349.75 Y319.25
G1 X345.96 Y295.35
G1 X364.77 Y280.12
G1 X368.55 Y304.02
G1 X391.15 Y312.69
G1 X387.36 Y288.79
G1 X383.58 Y264.89
G1 X360.98 Y256.22
G1 X357.20 Y232.32
G1 X376.00 Y217.09
G1 X394.81 Y201.86
G1 X398.60 Y225.76
G1 X379.79 Y240.99
G1 X402.38 Y249.66
G1 X421.19 Y234.43
G1 X443.78 Y243.10
G1 X447.57 Y267.01
G1 X451.35 Y290.91
G1 X428.76 Y282.23
G1 X424.98 Y258.33
G1 X406.17 Y273.56
G1 X409.95 Y297.46
G1 X432.55 Y306.14
G1 X436.33 Y330.04
G1 X413.74 Y321.37
G1 X394.93 Y336.60
G1 X417.53 Y345.27
G1 X440.12 Y353.94
G1 X458.93 Y338.71
G1 X455.14 Y314.81
G1 X473.95 Y299.58
G1 X477.73 Y323.48
G1 X500.32 Y332.15
G1 X496.54 Y308.25
G1 X492.75 Y284.35
G1 X470.16 Y275.68
G1 X466.38 Y251.78
G1 X485.18 Y236.55
G1 X488.97 Y260.45
G1 X511.56 Y269.12
G1 X507.77 Y245.22
G1 X503.99 Y221.32
G1 X481.40 Y212.64
G1 X462.59 Y227.87
G1 X440.00 Y219.20
G1 X417.40 Y210.53
G1 X436.21 Y195.30
G1 X458.80 Y203.97
G1 X455.02 Y180.07
G1 X432.43 Y171.40
G1 X413.62 Y186.63
G1 X391.03 Y177.95
G1 X409.83 Y162.72
G1 X406.05 Y138.82
G1 X387.24 Y154.05
G1 X368.43 Y169.28
G1 X372.22 Y193.18
G1 X353.41 Y208.41
G1 X330.82 Y199.74
G1 X308.23 Y191.07
G1 X327.03 Y175.84
G1 X349.63 Y184.51
G1 X345.84 Y160.61
G1 X323.25 Y151.94
G1 X304.44 Y167.17
G1 X281.85 Y158.49
G1 X259.26 Y149.82
G1 X278.06 Y134.59
G1 X300.66 Y143.26
G1 X296.87 Y119.36
G1 X274.28 Y110.69
G1 X270.49 Y86.79
G1 X289.30 Y71.56
G1 X308.10 Y56.33
G1 X311.89 Y80.23
G1 X293.08 Y95.46
G1 X315.68 Y104.13
G1 X334.48 Y88.90
G1 X357.08 Y97.58
G1 X360.86 Y121.48
G1 X338.27 Y112.80
G1 X319.46 Y128.03
G1 X342.05 Y136.71
G1 X364.65 Y145.38
G1 X383.45 Y130.15
G1 X379.67 Y106.25
G1 X398.48 Y91.02
G1 X402.26 Y114.92
G1 X424.85 Y123.59
G1 X421.07 Y99.69
G1 X417.28 Y75.79
G1 X394.69 Y67.12
G1 X375.88 Y82.35
G1 X353.29 Y73.67
G1 X330.70 Y65.00
G1 X349.50 Y49.77
G1 X372.10 Y58.44
G1 X368.31 Y34.54
G1 X345.72 Y25.87

; Custom G-code to execute after the end of the sketch

