; Created using https://markroland.github.io/sand-table-pattern-maker/
;
; 11/11/2024 12:35:23
;
; Machine Specifications:
;
; Units: mm
;
; Min X: 0
; Max X: 525
; Min Y: 0
; Max Y: 525
; Motor Speed (mm/min): 2000
;
; Pattern Specifications:
;
; Name: Circle
;
; Parameters:
; - radius: [object Object]
; - angle: [object Object]
; - reverse: [object Object]
;
; URL: file:///C:/Arduino/Projects/Sand%20Projects/sand-table-pattern-maker-master/index.html?pattern=lindenmayer
;
; Pattern Distance (mm): 7,747.0
; Pattern Draw Time (minutes): 3.8


; Custom G-code to execute before the start of the sketch

G1 X64.25 Y491.25
G1 X64.25 Y460.75
G1 X33.75 Y460.75
G1 X33.75 Y430.25
G1 X33.75 Y399.75
G1 X64.25 Y399.75
G1 X64.25 Y430.25
G1 X94.75 Y430.25
G1 X94.75 Y399.75
G1 X125.25 Y399.75
G1 X125.25 Y430.25
G1 X125.25 Y460.75
G1 X94.75 Y460.75
G1 X94.75 Y491.25
G1 X125.25 Y491.25
G1 X155.75 Y491.25
G1 X155.75 Y460.75
G1 X186.25 Y460.75
G1 X186.25 Y491.25
G1 X216.75 Y491.25
G1 X247.25 Y491.25
G1 X247.25 Y460.75
G1 X216.75 Y460.75
G1 X216.75 Y430.25
G1 X247.25 Y430.25
G1 X247.25 Y399.75
G1 X216.75 Y399.75
G1 X186.25 Y399.75
G1 X186.25 Y430.25
G1 X155.75 Y430.25
G1 X155.75 Y399.75
G1 X155.75 Y369.25
G1 X155.75 Y338.75
G1 X186.25 Y338.75
G1 X186.25 Y369.25
G1 X216.75 Y369.25
G1 X247.25 Y369.25
G1 X247.25 Y338.75
G1 X216.75 Y338.75
G1 X216.75 Y308.25
G1 X247.25 Y308.25
G1 X247.25 Y277.75
G1 X216.75 Y277.75
G1 X186.25 Y277.75
G1 X186.25 Y308.25
G1 X155.75 Y308.25
G1 X155.75 Y277.75
G1 X125.25 Y277.75
G1 X94.75 Y277.75
G1 X94.75 Y308.25
G1 X125.25 Y308.25
G1 X125.25 Y338.75
G1 X125.25 Y369.25
G1 X94.75 Y369.25
G1 X94.75 Y338.75
G1 X64.25 Y338.75
G1 X64.25 Y369.25
G1 X33.75 Y369.25
G1 X33.75 Y338.75
G1 X33.75 Y308.25
G1 X64.25 Y308.25
G1 X64.25 Y277.75
G1 X33.75 Y277.75
G1 X33.75 Y247.25
G1 X33.75 Y216.75
G1 X64.25 Y216.75
G1 X64.25 Y247.25
G1 X94.75 Y247.25
G1 X125.25 Y247.25
G1 X125.25 Y216.75
G1 X94.75 Y216.75
G1 X94.74 Y186.25
G1 X125.24 Y186.25
G1 X125.24 Y155.75
G1 X94.74 Y155.75
G1 X64.24 Y155.75
G1 X64.24 Y186.25
G1 X33.74 Y186.25
G1 X33.74 Y155.75
G1 X33.74 Y125.25
G1 X64.24 Y125.25
G1 X64.24 Y94.75
G1 X33.74 Y94.75
G1 X33.74 Y64.25
G1 X33.74 Y33.75
G1 X64.24 Y33.75
G1 X64.24 Y64.25
G1 X94.74 Y64.25
G1 X94.74 Y33.75
G1 X125.24 Y33.75
G1 X125.24 Y64.25
G1 X125.24 Y94.75
G1 X94.74 Y94.75
G1 X94.74 Y125.25
G1 X125.24 Y125.25
G1 X155.74 Y125.25
G1 X186.24 Y125.25
G1 X186.24 Y94.75
G1 X155.74 Y94.75
G1 X155.74 Y64.25
G1 X155.74 Y33.75
G1 X186.24 Y33.75
G1 X186.24 Y64.25
G1 X216.74 Y64.25
G1 X216.74 Y33.75
G1 X247.24 Y33.75
G1 X247.24 Y64.25
G1 X247.24 Y94.75
G1 X216.74 Y94.75
G1 X216.74 Y125.25
G1 X247.24 Y125.25
G1 X247.24 Y155.75
G1 X247.24 Y186.25
G1 X216.74 Y186.25
G1 X216.74 Y155.75
G1 X186.24 Y155.75
G1 X155.74 Y155.75
G1 X155.75 Y186.25
G1 X186.25 Y186.25
G1 X186.25 Y216.75
G1 X155.75 Y216.75
G1 X155.75 Y247.25
G1 X186.25 Y247.25
G1 X216.75 Y247.25
G1 X216.75 Y216.75
G1 X247.25 Y216.75
G1 X247.25 Y247.25
G1 X277.75 Y247.25
G1 X277.75 Y216.75
G1 X308.25 Y216.75
G1 X308.25 Y247.25
G1 X338.75 Y247.24
G1 X369.25 Y247.24
G1 X369.25 Y216.74
G1 X338.75 Y216.74
G1 X338.75 Y186.25
G1 X369.25 Y186.24
G1 X369.24 Y155.74
G1 X338.74 Y155.75
G1 X308.24 Y155.75
G1 X308.25 Y186.25
G1 X277.75 Y186.25
G1 X277.75 Y155.75
G1 X277.75 Y125.25
G1 X308.24 Y125.25
G1 X308.24 Y94.75
G1 X277.75 Y94.75
G1 X277.74 Y64.25
G1 X277.74 Y33.75
G1 X308.24 Y33.75
G1 X308.24 Y64.25
G1 X338.74 Y64.24
G1 X338.74 Y33.74
G1 X369.24 Y33.74
G1 X369.24 Y64.24
G1 X369.24 Y94.74
G1 X338.74 Y94.74
G1 X338.74 Y125.24
G1 X369.24 Y125.24
G1 X399.74 Y125.24
G1 X430.24 Y125.24
G1 X430.24 Y94.74
G1 X399.74 Y94.74
G1 X399.74 Y64.24
G1 X399.74 Y33.74
G1 X430.24 Y33.74
G1 X430.24 Y64.24
G1 X460.74 Y64.24
G1 X460.74 Y33.74
G1 X491.24 Y33.74
G1 X491.24 Y64.24
G1 X491.24 Y94.74
G1 X460.74 Y94.74
G1 X460.74 Y125.24
G1 X491.24 Y125.24
G1 X491.24 Y155.74
G1 X491.24 Y186.24
G1 X460.74 Y186.24
G1 X460.74 Y155.74
G1 X430.24 Y155.74
G1 X399.74 Y155.74
G1 X399.74 Y186.24
G1 X430.24 Y186.24
G1 X430.25 Y216.74
G1 X399.75 Y216.74
G1 X399.75 Y247.24
G1 X430.25 Y247.24
G1 X460.75 Y247.24
G1 X460.75 Y216.74
G1 X491.25 Y216.74
G1 X491.25 Y247.24
G1 X491.25 Y277.74
G1 X460.75 Y277.74
G1 X460.75 Y308.24
G1 X491.25 Y308.24
G1 X491.25 Y338.74
G1 X491.25 Y369.24
G1 X460.75 Y369.24
G1 X460.75 Y338.74
G1 X430.25 Y338.74
G1 X430.25 Y369.24
G1 X399.75 Y369.24
G1 X399.75 Y338.74
G1 X399.75 Y308.24
G1 X430.25 Y308.24
G1 X430.25 Y277.75
G1 X399.75 Y277.75
G1 X369.25 Y277.75
G1 X369.25 Y308.24
G1 X338.75 Y308.25
G1 X338.75 Y277.75
G1 X308.25 Y277.75
G1 X277.75 Y277.75
G1 X277.75 Y308.25
G1 X308.25 Y308.25
G1 X308.25 Y338.75
G1 X277.75 Y338.75
G1 X277.75 Y369.25
G1 X308.25 Y369.25
G1 X338.75 Y369.25
G1 X338.75 Y338.75
G1 X369.25 Y338.74
G1 X369.25 Y369.24
G1 X369.25 Y399.74
G1 X369.25 Y430.24
G1 X338.75 Y430.24
G1 X338.75 Y399.74
G1 X308.25 Y399.75
G1 X277.75 Y399.75
G1 X277.75 Y430.25
G1 X308.25 Y430.25
G1 X308.25 Y460.75
G1 X277.75 Y460.75
G1 X277.75 Y491.25
G1 X308.25 Y491.25
G1 X338.75 Y491.24
G1 X338.75 Y460.74
G1 X369.25 Y460.74
G1 X369.25 Y491.24
G1 X399.75 Y491.24
G1 X430.25 Y491.24
G1 X430.25 Y460.74
G1 X399.75 Y460.74
G1 X399.75 Y430.24
G1 X399.75 Y399.74
G1 X430.25 Y399.74
G1 X430.25 Y430.24
G1 X460.75 Y430.24
G1 X460.75 Y399.74
G1 X491.25 Y399.74
G1 X491.25 Y430.24
G1 X491.25 Y460.74
G1 X460.75 Y460.74
G1 X460.75 Y491.24
G1 X491.25 Y491.24

; Custom G-code to execute after the end of the sketch

