; Created using https://markroland.github.io/sand-table-pattern-maker/
;
; 11/11/2024 12:28:44
;
; Machine Specifications:
;
; Units: mm
;
; Min X: 0
; Max X: 525
; Min Y: 0
; Max Y: 525
; Motor Speed (mm/min): 2000
;
; Pattern Specifications:
;
; Name: Circle
;
; Parameters:
; - radius: [object Object]
; - angle: [object Object]
; - reverse: [object Object]
;
; URL: file:///C:/Arduino/Projects/Sand%20Projects/sand-table-pattern-maker-master/index.html?pattern=farris
;
; Pattern Distance (mm): 14,825.4
; Pattern Draw Time (minutes): 7.4


; Custom G-code to execute before the start of the sketch

G1 X462.25 Y262.50
G1 X467.53 Y276.28
G1 X471.67 Y290.06
G1 X474.65 Y303.75
G1 X476.45 Y317.28
G1 X477.07 Y330.57
G1 X476.51 Y343.53
G1 X474.77 Y356.09
G1 X471.87 Y368.18
G1 X467.84 Y379.73
G1 X462.69 Y390.66
G1 X456.45 Y400.92
G1 X449.18 Y410.44
G1 X440.91 Y419.15
G1 X431.68 Y427.02
G1 X421.57 Y433.98
G1 X410.62 Y440.00
G1 X398.89 Y445.04
G1 X386.47 Y449.06
G1 X373.41 Y452.04
G1 X359.80 Y453.95
G1 X345.71 Y454.78
G1 X331.22 Y454.52
G1 X316.42 Y453.17
G1 X301.39 Y450.73
G1 X286.20 Y447.21
G1 X270.96 Y442.62
G1 X255.74 Y436.98
G1 X240.63 Y430.33
G1 X225.72 Y422.70
G1 X211.08 Y414.12
G1 X196.79 Y404.64
G1 X182.95 Y394.31
G1 X169.61 Y383.19
G1 X156.86 Y371.33
G1 X144.76 Y358.80
G1 X133.38 Y345.67
G1 X122.78 Y332.00
G1 X113.02 Y317.88
G1 X104.14 Y303.37
G1 X96.20 Y288.57
G1 X89.23 Y273.55
G1 X83.28 Y258.40
G1 X78.36 Y243.20
G1 X74.51 Y228.04
G1 X71.73 Y212.99
G1 X70.05 Y198.15
G1 X69.46 Y183.61
G1 X69.97 Y169.43
G1 X71.56 Y155.71
G1 X74.23 Y142.53
G1 X77.95 Y129.95
G1 X82.70 Y118.05
G1 X88.44 Y106.90
G1 X95.15 Y96.57
G1 X102.77 Y87.11
G1 X111.26 Y78.59
G1 X120.57 Y71.04
G1 X130.63 Y64.53
G1 X141.40 Y59.08
G1 X152.80 Y54.74
G1 X164.77 Y51.53
G1 X177.24 Y49.47
G1 X190.13 Y48.57
G1 X203.36 Y48.86
G1 X216.86 Y50.32
G1 X230.56 Y52.97
G1 X244.36 Y56.77
G1 X258.20 Y61.72
G1 X271.98 Y67.80
G1 X285.64 Y74.97
G1 X299.09 Y83.20
G1 X312.26 Y92.45
G1 X325.07 Y102.67
G1 X337.45 Y113.80
G1 X349.33 Y125.78
G1 X360.64 Y138.56
G1 X371.33 Y152.07
G1 X381.32 Y166.23
G1 X390.57 Y180.96
G1 X399.02 Y196.19
G1 X406.64 Y211.84
G1 X413.37 Y227.82
G1 X419.19 Y244.04
G1 X424.06 Y260.41
G1 X427.96 Y276.85
G1 X430.86 Y293.27
G1 X432.77 Y309.57
G1 X433.66 Y325.66
G1 X433.55 Y341.46
G1 X432.43 Y356.88
G1 X430.31 Y371.83
G1 X427.21 Y386.23
G1 X423.16 Y400.00
G1 X418.17 Y413.06
G1 X412.29 Y425.34
G1 X405.56 Y436.77
G1 X398.00 Y447.28
G1 X389.68 Y456.82
G1 X380.65 Y465.33
G1 X370.95 Y472.76
G1 X360.65 Y479.07
G1 X349.82 Y484.23
G1 X338.52 Y488.19
G1 X326.81 Y490.94
G1 X314.77 Y492.46
G1 X302.48 Y492.73
G1 X289.99 Y491.77
G1 X277.40 Y489.55
G1 X264.78 Y486.11
G1 X252.19 Y481.44
G1 X239.72 Y475.59
G1 X227.44 Y468.56
G1 X215.41 Y460.41
G1 X203.72 Y451.17
G1 X192.44 Y440.90
G1 X181.62 Y429.64
G1 X171.32 Y417.46
G1 X161.62 Y404.41
G1 X152.57 Y390.58
G1 X144.21 Y376.03
G1 X136.61 Y360.85
G1 X129.79 Y345.10
G1 X123.80 Y328.89
G1 X118.67 Y312.29
G1 X114.44 Y295.40
G1 X111.12 Y278.30
G1 X108.73 Y261.09
G1 X107.29 Y243.87
G1 X106.80 Y226.72
G1 X107.26 Y209.74
G1 X108.67 Y193.02
G1 X111.01 Y176.66
G1 X114.27 Y160.73
G1 X118.44 Y145.34
G1 X123.47 Y130.55
G1 X129.34 Y116.47
G1 X136.02 Y103.15
G1 X143.46 Y90.67
G1 X151.61 Y79.11
G1 X160.43 Y68.52
G1 X169.86 Y58.96
G1 X179.83 Y50.49
G1 X190.30 Y43.16
G1 X201.20 Y36.99
G1 X212.46 Y32.03
G1 X224.00 Y28.31
G1 X235.77 Y25.84
G1 X247.69 Y24.65
G1 X259.69 Y24.73
G1 X271.69 Y26.08
G1 X283.62 Y28.71
G1 X295.41 Y32.59
G1 X306.99 Y37.71
G1 X318.28 Y44.03
G1 X329.23 Y51.53
G1 X339.75 Y60.17
G1 X349.80 Y69.89
G1 X359.30 Y80.64
G1 X368.21 Y92.38
G1 X376.46 Y105.02
G1 X384.00 Y118.52
G1 X390.80 Y132.78
G1 X396.81 Y147.74
G1 X401.98 Y163.31
G1 X406.30 Y179.41
G1 X409.73 Y195.95
G1 X412.26 Y212.85
G1 X413.86 Y230.01
G1 X414.53 Y247.33
G1 X414.26 Y264.73
G1 X413.05 Y282.11
G1 X410.91 Y299.38
G1 X407.85 Y316.43
G1 X403.89 Y333.19
G1 X399.06 Y349.56
G1 X393.37 Y365.45
G1 X386.87 Y380.78
G1 X379.60 Y395.46
G1 X371.58 Y409.41
G1 X362.88 Y422.56
G1 X353.55 Y434.85
G1 X343.63 Y446.19
G1 X333.20 Y456.54
G1 X322.31 Y465.83
G1 X311.02 Y474.02
G1 X299.41 Y481.07
G1 X287.54 Y486.93
G1 X275.49 Y491.58
G1 X263.32 Y495.00
G1 X251.12 Y497.15
G1 X238.95 Y498.05
G1 X226.89 Y497.68
G1 X215.01 Y496.04
G1 X203.38 Y493.15
G1 X192.08 Y489.02
G1 X181.17 Y483.68
G1 X170.72 Y477.16
G1 X160.80 Y469.49
G1 X151.46 Y460.73
G1 X142.76 Y450.91
G1 X134.76 Y440.09
G1 X127.50 Y428.34
G1 X121.04 Y415.71
G1 X115.41 Y402.29
G1 X110.65 Y388.13
G1 X106.79 Y373.33
G1 X103.86 Y357.96
G1 X101.88 Y342.11
G1 X100.86 Y325.86
G1 X100.81 Y309.30
G1 X101.73 Y292.53
G1 X103.63 Y275.63
G1 X106.49 Y258.70
G1 X110.31 Y241.84
G1 X115.05 Y225.12
G1 X120.71 Y208.64
G1 X127.24 Y192.50
G1 X134.60 Y176.78
G1 X142.77 Y161.55
G1 X151.70 Y146.92
G1 X161.33 Y132.95
G1 X171.61 Y119.71
G1 X182.48 Y107.29
G1 X193.88 Y95.74
G1 X205.74 Y85.13
G1 X218.00 Y75.50
G1 X230.59 Y66.92
G1 X243.42 Y59.43
G1 X256.44 Y53.06
G1 X269.56 Y47.85
G1 X282.70 Y43.81
G1 X295.79 Y40.98
G1 X308.74 Y39.36
G1 X321.50 Y38.96
G1 X333.97 Y39.78
G1 X346.08 Y41.80
G1 X357.77 Y45.02
G1 X368.95 Y49.41
G1 X379.57 Y54.95
G1 X389.56 Y61.60
G1 X398.86 Y69.33
G1 X407.40 Y78.08
G1 X415.15 Y87.80
G1 X422.04 Y98.45
G1 X428.04 Y109.95
G1 X433.11 Y122.25
G1 X437.21 Y135.27
G1 X440.31 Y148.93
G1 X442.40 Y163.17
G1 X443.45 Y177.89
G1 X443.46 Y193.02
G1 X442.42 Y208.48
G1 X440.33 Y224.17
G1 X437.20 Y240.01
G1 X433.04 Y255.91
G1 X427.88 Y271.79
G1 X421.74 Y287.54
G1 X414.64 Y303.10
G1 X406.63 Y318.37
G1 X397.75 Y333.27
G1 X388.04 Y347.72
G1 X377.56 Y361.63
G1 X366.36 Y374.94
G1 X354.51 Y387.58
G1 X342.07 Y399.46
G1 X329.11 Y410.54
G1 X315.70 Y420.76
G1 X301.91 Y430.05
G1 X287.83 Y438.38
G1 X273.53 Y445.69
G1 X259.09 Y451.95
G1 X244.60 Y457.14
G1 X230.13 Y461.22
G1 X215.77 Y464.18
G1 X201.60 Y466.01
G1 X187.71 Y466.69
G1 X174.16 Y466.24
G1 X161.05 Y464.65
G1 X148.45 Y461.95
G1 X136.42 Y458.14
G1 X125.05 Y453.27
G1 X114.40 Y447.35
G1 X104.53 Y440.42
G1 X95.50 Y432.54
G1 X87.37 Y423.74
G1 X80.18 Y414.08
G1 X73.98 Y403.62
G1 X68.81 Y392.42
G1 X64.70 Y380.55
G1 X61.68 Y368.07
G1 X59.78 Y355.06
G1 X58.99 Y341.60
G1 X59.35 Y327.76
G1 X60.84 Y313.62
G1 X63.47 Y299.26
G1 X67.22 Y284.78
G1 X72.07 Y270.24
G1 X78.02 Y255.73
G1 X85.01 Y241.33
G1 X93.03 Y227.13
G1 X102.03 Y213.20
G1 X111.95 Y199.63
G1 X122.76 Y186.48
G1 X134.40 Y173.84
G1 X146.79 Y161.76
G1 X159.88 Y150.33
G1 X173.60 Y139.59
G1 X187.87 Y129.61
G1 X202.61 Y120.44
G1 X217.74 Y112.13
G1 X233.19 Y104.73
G1 X248.86 Y98.27
G1 X264.67 Y92.78
G1 X280.53 Y88.30
G1 X296.36 Y84.84
G1 X312.06 Y82.42
G1 X327.56 Y81.05
G1 X342.75 Y80.73
G1 X357.57 Y81.47
G1 X371.91 Y83.24
G1 X385.71 Y86.03
G1 X398.89 Y89.84
G1 X411.36 Y94.62
G1 X423.07 Y100.35
G1 X433.93 Y106.98
G1 X443.90 Y114.49
G1 X452.91 Y122.81
G1 X460.90 Y131.91
G1 X467.84 Y141.71
G1 X473.68 Y152.17
G1 X478.38 Y163.22
G1 X481.92 Y174.79
G1 X484.27 Y186.81
G1 X485.42 Y199.21
G1 X485.35 Y211.92
G1 X484.07 Y224.85
G1 X481.57 Y237.95
G1 X477.87 Y251.12
G1 X472.99 Y264.29
G1 X466.94 Y277.38
G1 X459.77 Y290.32
G1 X451.49 Y303.03
G1 X442.17 Y315.44
G1 X431.84 Y327.48
G1 X420.56 Y339.07
G1 X408.39 Y350.15
G1 X395.39 Y360.66
G1 X381.63 Y370.53
G1 X367.19 Y379.72
G1 X352.15 Y388.16
G1 X336.58 Y395.82
G1 X320.56 Y402.65
G1 X304.20 Y408.61
G1 X287.56 Y413.67
G1 X270.75 Y417.81
G1 X253.85 Y420.99
G1 X236.96 Y423.22
G1 X220.17 Y424.47
G1 X203.57 Y424.75
G1 X187.25 Y424.05
G1 X171.30 Y422.38
G1 X155.82 Y419.76
G1 X140.87 Y416.20
G1 X126.55 Y411.73
G1 X112.94 Y406.38
G1 X100.11 Y400.18
G1 X88.13 Y393.17
G1 X77.07 Y385.40
G1 X66.99 Y376.92
G1 X57.94 Y367.77
G1 X49.99 Y358.02
G1 X43.16 Y347.72
G1 X37.51 Y336.94
G1 X33.06 Y325.74
G1 X29.84 Y314.20
G1 X27.87 Y302.38
G1 X27.15 Y290.35
G1 X27.71 Y278.19
G1 X29.53 Y265.97
G1 X32.61 Y253.76
G1 X36.93 Y241.65
G1 X42.46 Y229.69
G1 X49.19 Y217.96
G1 X57.08 Y206.54
G1 X66.08 Y195.49
G1 X76.14 Y184.88
G1 X87.22 Y174.77
G1 X99.25 Y165.21
G1 X112.17 Y156.28
G1 X125.91 Y148.01
G1 X140.40 Y140.47
G1 X155.55 Y133.69
G1 X171.29 Y127.71
G1 X187.54 Y122.57
G1 X204.19 Y118.31
G1 X221.17 Y114.93
G1 X238.39 Y112.47
G1 X255.74 Y110.94
G1 X273.14 Y110.34
G1 X290.49 Y110.68
G1 X307.69 Y111.96
G1 X324.66 Y114.17
G1 X341.31 Y117.29
G1 X357.53 Y121.30
G1 X373.25 Y126.19
G1 X388.38 Y131.91
G1 X402.83 Y138.43
G1 X416.54 Y145.72
G1 X429.41 Y153.74
G1 X441.40 Y162.42
G1 X452.42 Y171.72
G1 X462.42 Y181.58
G1 X471.35 Y191.95
G1 X479.15 Y202.75
G1 X485.80 Y213.93
G1 X491.24 Y225.41
G1 X495.45 Y237.13
G1 X498.41 Y249.02
G1 X500.11 Y261.00
G1 X500.53 Y272.99
G1 X499.67 Y284.94
G1 X497.54 Y296.76
G1 X494.14 Y308.39
G1 X489.51 Y319.74
G1 X483.66 Y330.76
G1 X476.63 Y341.38
G1 X468.45 Y351.52
G1 X459.18 Y361.14
G1 X448.85 Y370.16
G1 X437.54 Y378.54
G1 X425.29 Y386.22
G1 X412.18 Y393.16
G1 X398.28 Y399.30
G1 X383.66 Y404.62
G1 X368.41 Y409.08
G1 X352.61 Y412.65
G1 X336.34 Y415.31
G1 X319.70 Y417.04
G1 X302.76 Y417.82
G1 X285.64 Y417.66
G1 X268.41 Y416.54
G1 X251.17 Y414.48
G1 X234.02 Y411.48
G1 X217.05 Y407.56
G1 X200.34 Y402.75
G1 X184.00 Y397.06
G1 X168.11 Y390.53
G1 X152.75 Y383.20
G1 X138.00 Y375.11
G1 X123.96 Y366.30
G1 X110.68 Y356.84
G1 X98.25 Y346.76
G1 X86.72 Y336.13
G1 X76.16 Y325.02
G1 X66.63 Y313.48
G1 X58.17 Y301.59
G1 X50.83 Y289.41
G1 X44.65 Y277.03
G1 X39.65 Y264.50
G1 X35.87 Y251.91
G1 X33.32 Y239.33
G1 X32.01 Y226.83
G1 X31.95 Y214.49
G1 X33.14 Y202.39
G1 X35.56 Y190.60
G1 X39.20 Y179.18
G1 X44.04 Y168.22
G1 X50.05 Y157.76
G1 X57.19 Y147.89
G1 X65.43 Y138.66
G1 X74.71 Y130.12
G1 X84.98 Y122.33
G1 X96.19 Y115.34
G1 X108.26 Y109.19
G1 X121.14 Y103.93
G1 X134.75 Y99.58
G1 X149.01 Y96.18
G1 X163.84 Y93.75
G1 X179.17 Y92.31
G1 X194.90 Y91.87
G1 X210.96 Y92.44
G1 X227.24 Y94.01
G1 X243.66 Y96.59
G1 X260.14 Y100.17
G1 X276.57 Y104.71
G1 X292.88 Y110.21
G1 X308.96 Y116.64
G1 X324.74 Y123.95
G1 X340.13 Y132.12
G1 X355.04 Y141.10
G1 X369.40 Y150.83
G1 X383.12 Y161.27
G1 X396.14 Y172.36
G1 X408.38 Y184.03
G1 X419.78 Y196.23
G1 X430.28 Y208.87
G1 X439.82 Y221.89
G1 X448.36 Y235.22
G1 X455.85 Y248.78
G1 X462.25 Y262.49
G1 X467.53 Y276.28
G1 X471.67 Y290.06
G1 X474.65 Y303.75
G1 X476.45 Y317.28
G1 X477.07 Y330.57
G1 X476.51 Y343.53
G1 X474.77 Y356.09
G1 X471.87 Y368.18
G1 X467.84 Y379.73
G1 X462.69 Y390.66
G1 X456.45 Y400.92
G1 X449.18 Y410.44
G1 X440.91 Y419.15
G1 X431.68 Y427.02
G1 X421.57 Y433.98
G1 X410.62 Y440.00
G1 X398.89 Y445.04
G1 X386.47 Y449.06
G1 X373.41 Y452.04
G1 X359.80 Y453.95
G1 X345.71 Y454.78
G1 X331.22 Y454.52
G1 X316.42 Y453.17
G1 X301.39 Y450.73
G1 X286.20 Y447.21
G1 X270.96 Y442.62
G1 X255.74 Y436.98
G1 X240.63 Y430.33
G1 X225.72 Y422.70
G1 X211.08 Y414.12
G1 X196.79 Y404.64
G1 X182.95 Y394.31
G1 X169.61 Y383.19
G1 X156.86 Y371.33
G1 X144.76 Y358.80
G1 X133.38 Y345.67
G1 X122.78 Y332.00
G1 X113.02 Y317.88
G1 X104.14 Y303.37
G1 X96.20 Y288.57
G1 X89.23 Y273.55
G1 X83.28 Y258.40
G1 X78.36 Y243.20
G1 X74.51 Y228.04
G1 X71.73 Y212.99
G1 X70.05 Y198.15
G1 X69.46 Y183.61
G1 X69.97 Y169.43
G1 X71.56 Y155.71
G1 X74.23 Y142.53
G1 X77.95 Y129.95
G1 X82.70 Y118.05
G1 X88.44 Y106.90
G1 X95.15 Y96.57
G1 X102.77 Y87.11
G1 X111.26 Y78.59
G1 X120.57 Y71.04
G1 X130.63 Y64.53
G1 X141.40 Y59.08
G1 X152.80 Y54.74
G1 X164.77 Y51.53
G1 X177.24 Y49.47
G1 X190.13 Y48.57
G1 X203.36 Y48.86
G1 X216.86 Y50.32
G1 X230.56 Y52.97
G1 X244.36 Y56.77
G1 X258.20 Y61.72
G1 X271.98 Y67.80
G1 X285.64 Y74.97
G1 X299.09 Y83.20
G1 X312.26 Y92.45
G1 X325.07 Y102.67
G1 X337.45 Y113.80
G1 X349.33 Y125.78
G1 X360.64 Y138.56
G1 X371.33 Y152.07
G1 X381.32 Y166.23
G1 X390.57 Y180.96
G1 X399.02 Y196.19
G1 X406.64 Y211.84
G1 X413.37 Y227.82
G1 X419.19 Y244.04
G1 X424.06 Y260.41
G1 X427.96 Y276.85
G1 X430.86 Y293.27
G1 X432.77 Y309.57
G1 X433.66 Y325.66
G1 X433.55 Y341.46
G1 X432.43 Y356.88
G1 X430.31 Y371.83
G1 X427.21 Y386.23
G1 X423.16 Y400.00
G1 X418.17 Y413.06
G1 X412.29 Y425.34
G1 X405.56 Y436.77
G1 X398.00 Y447.28
G1 X389.68 Y456.82
G1 X380.65 Y465.33
G1 X370.95 Y472.76
G1 X360.65 Y479.07
G1 X349.82 Y484.23
G1 X338.52 Y488.19
G1 X326.81 Y490.94
G1 X314.77 Y492.46
G1 X302.48 Y492.73
G1 X289.99 Y491.77
G1 X277.40 Y489.55
G1 X264.78 Y486.11
G1 X252.19 Y481.44
G1 X239.72 Y475.59
G1 X227.44 Y468.56
G1 X215.41 Y460.41
G1 X203.72 Y451.17
G1 X192.44 Y440.90
G1 X181.62 Y429.64
G1 X171.32 Y417.46
G1 X161.62 Y404.41
G1 X152.57 Y390.58
G1 X144.21 Y376.03
G1 X136.61 Y360.85
G1 X129.79 Y345.10
G1 X123.80 Y328.89
G1 X118.67 Y312.29
G1 X114.44 Y295.40
G1 X111.12 Y278.30
G1 X108.73 Y261.09
G1 X107.29 Y243.87
G1 X106.80 Y226.72
G1 X107.26 Y209.74
G1 X108.67 Y193.02
G1 X111.01 Y176.66
G1 X114.27 Y160.73
G1 X118.44 Y145.34
G1 X123.47 Y130.55
G1 X129.34 Y116.47
G1 X136.02 Y103.15
G1 X143.46 Y90.67
G1 X151.61 Y79.11
G1 X160.43 Y68.52
G1 X169.86 Y58.96
G1 X179.83 Y50.49
G1 X190.30 Y43.16
G1 X201.20 Y36.99
G1 X212.46 Y32.03
G1 X224.00 Y28.31
G1 X235.77 Y25.84
G1 X247.69 Y24.65
G1 X259.69 Y24.73
G1 X271.69 Y26.08
G1 X283.62 Y28.71
G1 X295.41 Y32.59
G1 X306.99 Y37.71
G1 X318.28 Y44.03
G1 X329.23 Y51.53
G1 X339.75 Y60.17
G1 X349.80 Y69.89
G1 X359.30 Y80.64
G1 X368.21 Y92.38
G1 X376.46 Y105.02
G1 X384.00 Y118.52
G1 X390.80 Y132.78
G1 X396.81 Y147.74
G1 X401.98 Y163.31
G1 X406.30 Y179.41
G1 X409.73 Y195.95
G1 X412.26 Y212.85
G1 X413.86 Y230.01
G1 X414.53 Y247.33
G1 X414.26 Y264.73
G1 X413.05 Y282.11
G1 X410.91 Y299.38
G1 X407.85 Y316.43
G1 X403.89 Y333.19
G1 X399.06 Y349.56
G1 X393.37 Y365.45
G1 X386.87 Y380.78
G1 X379.60 Y395.46
G1 X371.58 Y409.41
G1 X362.88 Y422.56
G1 X353.55 Y434.85
G1 X343.63 Y446.19
G1 X333.20 Y456.54
G1 X322.31 Y465.83
G1 X311.02 Y474.02
G1 X299.41 Y481.07
G1 X287.54 Y486.93
G1 X275.49 Y491.58
G1 X263.32 Y495.00
G1 X251.12 Y497.15
G1 X238.95 Y498.05
G1 X226.89 Y497.68
G1 X215.01 Y496.04
G1 X203.38 Y493.15
G1 X192.08 Y489.02
G1 X181.17 Y483.68
G1 X170.72 Y477.16
G1 X160.80 Y469.49
G1 X151.46 Y460.73
G1 X142.76 Y450.91
G1 X134.76 Y440.09
G1 X127.50 Y428.34
G1 X121.04 Y415.71
G1 X115.41 Y402.29
G1 X110.65 Y388.13
G1 X106.79 Y373.33
G1 X103.86 Y357.96
G1 X101.88 Y342.11
G1 X100.86 Y325.86
G1 X100.81 Y309.30
G1 X101.73 Y292.53
G1 X103.63 Y275.63
G1 X106.49 Y258.70
G1 X110.31 Y241.84
G1 X115.05 Y225.12
G1 X120.71 Y208.64
G1 X127.24 Y192.50
G1 X134.60 Y176.78
G1 X142.77 Y161.55
G1 X151.70 Y146.92
G1 X161.33 Y132.95
G1 X171.61 Y119.71
G1 X182.48 Y107.29
G1 X193.88 Y95.74
G1 X205.74 Y85.13
G1 X218.00 Y75.50
G1 X230.59 Y66.92
G1 X243.42 Y59.43
G1 X256.44 Y53.06
G1 X269.56 Y47.85
G1 X282.70 Y43.81
G1 X295.79 Y40.98
G1 X308.74 Y39.36
G1 X321.50 Y38.96
G1 X333.97 Y39.78
G1 X346.08 Y41.80
G1 X357.77 Y45.02
G1 X368.95 Y49.41
G1 X379.57 Y54.95
G1 X389.56 Y61.60
G1 X398.86 Y69.33
G1 X407.40 Y78.08
G1 X415.15 Y87.80
G1 X422.04 Y98.45
G1 X428.04 Y109.95
G1 X433.11 Y122.25
G1 X437.21 Y135.27
G1 X440.31 Y148.93
G1 X442.40 Y163.17
G1 X443.45 Y177.89
G1 X443.46 Y193.02
G1 X442.42 Y208.48
G1 X440.33 Y224.17
G1 X437.20 Y240.01
G1 X433.04 Y255.91
G1 X427.88 Y271.79
G1 X421.74 Y287.54
G1 X414.64 Y303.10
G1 X406.63 Y318.37
G1 X397.75 Y333.27
G1 X388.04 Y347.72
G1 X377.56 Y361.63
G1 X366.36 Y374.94
G1 X354.51 Y387.58
G1 X342.07 Y399.46
G1 X329.11 Y410.54
G1 X315.70 Y420.76
G1 X301.91 Y430.05
G1 X287.83 Y438.38
G1 X273.53 Y445.69
G1 X259.09 Y451.95
G1 X244.60 Y457.14
G1 X230.13 Y461.22
G1 X215.77 Y464.18
G1 X201.60 Y466.01
G1 X187.71 Y466.69
G1 X174.16 Y466.24
G1 X161.05 Y464.65
G1 X148.45 Y461.95
G1 X136.42 Y458.14
G1 X125.05 Y453.27
G1 X114.40 Y447.35
G1 X104.53 Y440.42
G1 X95.50 Y432.54
G1 X87.37 Y423.74
G1 X80.18 Y414.08
G1 X73.98 Y403.62
G1 X68.81 Y392.42
G1 X64.70 Y380.55
G1 X61.68 Y368.07
G1 X59.78 Y355.06
G1 X58.99 Y341.60
G1 X59.35 Y327.76
G1 X60.84 Y313.62
G1 X63.47 Y299.26
G1 X67.22 Y284.78
G1 X72.07 Y270.24
G1 X78.02 Y255.73
G1 X85.01 Y241.33
G1 X93.03 Y227.13
G1 X102.03 Y213.20
G1 X111.95 Y199.63
G1 X122.76 Y186.48
G1 X134.40 Y173.84
G1 X146.79 Y161.76
G1 X159.88 Y150.33
G1 X173.60 Y139.59
G1 X187.87 Y129.61
G1 X202.61 Y120.44
G1 X217.74 Y112.13
G1 X233.19 Y104.73
G1 X248.86 Y98.27
G1 X264.67 Y92.78
G1 X280.53 Y88.30
G1 X296.36 Y84.84
G1 X312.06 Y82.42
G1 X327.56 Y81.05
G1 X342.75 Y80.73
G1 X357.57 Y81.47
G1 X371.91 Y83.24
G1 X385.71 Y86.03
G1 X398.89 Y89.84
G1 X411.36 Y94.62
G1 X423.07 Y100.35
G1 X433.93 Y106.98
G1 X443.90 Y114.49
G1 X452.91 Y122.81
G1 X460.90 Y131.91
G1 X467.84 Y141.71
G1 X473.68 Y152.17
G1 X478.38 Y163.22
G1 X481.92 Y174.79
G1 X484.27 Y186.81
G1 X485.42 Y199.21
G1 X485.35 Y211.92
G1 X484.07 Y224.85
G1 X481.57 Y237.95
G1 X477.87 Y251.12
G1 X472.99 Y264.29
G1 X466.94 Y277.38
G1 X459.77 Y290.32
G1 X451.49 Y303.03
G1 X442.17 Y315.44
G1 X431.84 Y327.48
G1 X420.56 Y339.07
G1 X408.39 Y350.15
G1 X395.39 Y360.66
G1 X381.63 Y370.53
G1 X367.19 Y379.72
G1 X352.15 Y388.16
G1 X336.58 Y395.82
G1 X320.56 Y402.65
G1 X304.20 Y408.61
G1 X287.56 Y413.67
G1 X270.75 Y417.81
G1 X253.85 Y420.99
G1 X236.96 Y423.22
G1 X220.17 Y424.47
G1 X203.57 Y424.75
G1 X187.25 Y424.05
G1 X171.30 Y422.38
G1 X155.82 Y419.76
G1 X140.87 Y416.20
G1 X126.55 Y411.73
G1 X112.94 Y406.38
G1 X100.11 Y400.18
G1 X88.13 Y393.17
G1 X77.07 Y385.40
G1 X66.99 Y376.92
G1 X57.94 Y367.77
G1 X49.99 Y358.02
G1 X43.16 Y347.72
G1 X37.51 Y336.94
G1 X33.06 Y325.74
G1 X29.84 Y314.20
G1 X27.87 Y302.38
G1 X27.15 Y290.35
G1 X27.71 Y278.19
G1 X29.53 Y265.97
G1 X32.61 Y253.76
G1 X36.93 Y241.65
G1 X42.46 Y229.69
G1 X49.19 Y217.96
G1 X57.08 Y206.54
G1 X66.08 Y195.49
G1 X76.14 Y184.88
G1 X87.22 Y174.77
G1 X99.25 Y165.21
G1 X112.17 Y156.28
G1 X125.91 Y148.01
G1 X140.40 Y140.47
G1 X155.55 Y133.69
G1 X171.29 Y127.71
G1 X187.54 Y122.57
G1 X204.19 Y118.31
G1 X221.17 Y114.93
G1 X238.39 Y112.47
G1 X255.74 Y110.94
G1 X273.14 Y110.34
G1 X290.49 Y110.68
G1 X307.69 Y111.96
G1 X324.66 Y114.17
G1 X341.31 Y117.29
G1 X357.53 Y121.30
G1 X373.25 Y126.19
G1 X388.38 Y131.91
G1 X402.83 Y138.43
G1 X416.54 Y145.72
G1 X429.41 Y153.74
G1 X441.40 Y162.42
G1 X452.42 Y171.72
G1 X462.42 Y181.58
G1 X471.35 Y191.95
G1 X479.15 Y202.75
G1 X485.80 Y213.93
G1 X491.24 Y225.41
G1 X495.45 Y237.13
G1 X498.41 Y249.02
G1 X500.11 Y261.00
G1 X500.53 Y272.99
G1 X499.67 Y284.94
G1 X497.54 Y296.76
G1 X494.14 Y308.39
G1 X489.51 Y319.74
G1 X483.66 Y330.76
G1 X476.63 Y341.38
G1 X468.45 Y351.52
G1 X459.18 Y361.14
G1 X448.85 Y370.16
G1 X437.54 Y378.54
G1 X425.29 Y386.22
G1 X412.18 Y393.16
G1 X398.28 Y399.30
G1 X383.66 Y404.62
G1 X368.41 Y409.08
G1 X352.61 Y412.65
G1 X336.34 Y415.31
G1 X319.70 Y417.04
G1 X302.76 Y417.82
G1 X285.64 Y417.66
G1 X268.41 Y416.54
G1 X251.17 Y414.48
G1 X234.02 Y411.48
G1 X217.05 Y407.56
G1 X200.34 Y402.75
G1 X184.00 Y397.06
G1 X168.11 Y390.53
G1 X152.75 Y383.20
G1 X138.00 Y375.11
G1 X123.96 Y366.30
G1 X110.68 Y356.84
G1 X98.25 Y346.76
G1 X86.72 Y336.13
G1 X76.16 Y325.02
G1 X66.63 Y313.48
G1 X58.17 Y301.59
G1 X50.83 Y289.41
G1 X44.65 Y277.03
G1 X39.65 Y264.50
G1 X35.87 Y251.91
G1 X33.32 Y239.33
G1 X32.01 Y226.83
G1 X31.95 Y214.49
G1 X33.14 Y202.39
G1 X35.56 Y190.60
G1 X39.20 Y179.18
G1 X44.04 Y168.22
G1 X50.05 Y157.76
G1 X57.19 Y147.89
G1 X65.43 Y138.66
G1 X74.71 Y130.12
G1 X84.98 Y122.33
G1 X96.19 Y115.34
G1 X108.26 Y109.19
G1 X121.14 Y103.93
G1 X134.75 Y99.58
G1 X149.01 Y96.18
G1 X163.84 Y93.75
G1 X179.17 Y92.31
G1 X194.90 Y91.87
G1 X210.96 Y92.44
G1 X227.24 Y94.01
G1 X243.66 Y96.59
G1 X260.14 Y100.17
G1 X276.57 Y104.71
G1 X292.88 Y110.21
G1 X308.96 Y116.64
G1 X324.74 Y123.95
G1 X340.13 Y132.12
G1 X355.04 Y141.10
G1 X369.40 Y150.83
G1 X383.12 Y161.27
G1 X396.14 Y172.36
G1 X408.38 Y184.03
G1 X419.78 Y196.23
G1 X430.28 Y208.87
G1 X439.82 Y221.89
G1 X448.36 Y235.22
G1 X455.85 Y248.78
G1 X462.25 Y262.49

; Custom G-code to execute after the end of the sketch

